icons/repeat-2-line.svg

<svg viewBox="0 0 24 24" fill="currentColor" xmlns="http://www.w3.org/2000/svg">
    <path d="M8 20V21.9324C8 22.2086 7.77614 22.4324 7.5 22.4324C7.38303 22.4324 7.26977 22.3914 7.17991 22.3165L3.06093 18.8841C2.84879 18.7073 2.82013 18.392 2.99691 18.1799C3.09191 18.0659 3.23264 18 3.38103 18L18 18C19.1046 18 20 17.1045 20 16V7.99997H22V16C22 18.2091 20.2091 20 18 20H8ZM16 3.99997V2.0675C16 1.79136 16.2239 1.5675 16.5 1.5675C16.617 1.5675 16.7302 1.60851 16.8201 1.68339L20.9391 5.11587C21.1512 5.29266 21.1799 5.60794 21.0031 5.82008C20.9081 5.93407 20.7674 5.99998 20.619 5.99998L6 5.99997C4.89543 5.99997 4 6.8954 4 7.99997V16H2V7.99997C2 5.79083 3.79086 3.99997 6 3.99997H16Z"/>
</svg>

<svg xmlns="http://www.w3.org/2000/svg" viewBox="0 0 24 24">
    <g>
        <path fill="none" d="M0 0h24v24H0z"/>
        <path d="M8 20v1.932a.5.5 0 0 1-.82.385l-4.12-3.433A.5.5 0 0 1 3.382 18H18a2 2 0 0 0 2-2V8h2v8a4 4 0 0 1-4 4H8zm8-16V2.068a.5.5 0 0 1 .82-.385l4.12 3.433a.5.5 0 0 1-.321.884H6a2 2 0 0 0-2 2v8H2V8a4 4 0 0 1 4-4h10z"/>
    </g>
</svg>
